assets/icons/delete.svg

<?xml version="1.0" encoding="UTF-8"?>
<svg width="800px" height="800px" viewBox="0 0 48 48" version="1.1" xmlns="http://www.w3.org/2000/svg" xmlns:xlink="http://www.w3.org/1999/xlink">
    <!-- Uploaded to: SVG Repo, www.svgrepo.com, Generator: SVG Repo Mixer Tools -->
    <title>ic_fluent_delete_48_filled</title>
    <desc>Created with Sketch.</desc>
    <g id="🔍-Product-Icons" stroke="none" stroke-width="1" fill="none" fill-rule="evenodd">
        <g id="ic_fluent_delete_48_filled" fill="#bababa" fill-rule="nonzero">
            <path d="M24,6.75 C27.3750735,6.75 30.1253119,9.4252368 30.245878,12.7708731 L30.25,13.0010013 L37,13 C37.9664983,13 38.75,13.7835017 38.75,14.75 C38.75,15.6681734 38.0428897,16.4211923 37.1435272,16.4941988 L37,16.5 L35.833,16.5 L34.2058308,38.0698451 C34.0385226,40.2866784 32.1910211,42 29.9678833,42 L18.0321167,42 C15.8089789,42 13.9614774,40.2866784 13.7941692,38.0698451 L12.166,16.5 L11,16.5 C10.0818266,16.5 9.32880766,15.7928897 9.2558012,14.8935272 L9.25,14.75 C9.25,13.8318266 9.95711027,13.0788077 10.8564728,13.0058012 L11,13 L17.75,13 C17.75,9.70163274 20.305017,7.00002168 23.5438239,6.76639376 L23.7708731,6.75412198 L24,6.75 Z M27.75,19.75 C27.1027913,19.75 26.5704661,20.2418747 26.5064536,20.8721948 L26.5,21 L26.5,33 L26.5064536,33.1278052 C26.5704661,33.7581253 27.1027913,34.25 27.75,34.25 C28.3972087,34.25 28.9295339,33.7581253 28.9935464,33.1278052 L29,33 L29,21 L28.9935464,20.8721948 C28.9295339,20.2418747 28.3972087,19.75 27.75,19.75 Z M20.25,19.75 C19.6027913,19.75 19.0704661,20.2418747 19.0064536,20.8721948 L19,21 L19,33 L19.0064536,33.1278052 C19.0704661,33.7581253 19.6027913,34.25 20.25,34.25 C20.8972087,34.25 21.4295339,33.7581253 21.4935464,33.1278052 L21.5,33 L21.5,21 L21.4935464,20.8721948 C21.4295339,20.2418747 20.8972087,19.75 20.25,19.75 Z M24.1675223,10.2550188 L24,10.25 C22.5374682,10.25 21.3415957,11.3917046 21.2550188,12.8324777 L21.2500002,13.0010036 L26.7500002,13 C26.7500002,11.5374682 25.6082954,10.3415957 24.1675223,10.2550188 Z" id="🎨-Color">

</path>
        </g>
    </g>
</svg>

<?xml version="1.0" encoding="UTF-8" standalone="no"?>
<svg
   width="32"
   height="38.237286"
   viewBox="0 0 1.92 2.2942371"
   version="1.1"
   id="svg9"
   sodipodi:docname="delete.svg"
   inkscape:version="1.2.2 (b0a8486541, 2022-12-01)"
   xmlns:inkscape="http://www.inkscape.org/namespaces/inkscape"
   xmlns:sodipodi="http://sodipodi.sourceforge.net/DTD/sodipodi-0.dtd"
   xmlns="http://www.w3.org/2000/svg"
   xmlns:svg="http://www.w3.org/2000/svg">
  <defs
     id="defs13" />
  <sodipodi:namedview
     id="namedview11"
     pagecolor="#ffffff"
     bordercolor="#000000"
     borderopacity="0.25"
     inkscape:showpageshadow="2"
     inkscape:pageopacity="0.0"
     inkscape:pagecheckerboard="0"
     inkscape:deskcolor="#d1d1d1"
     showgrid="false"
     inkscape:zoom="1.5284264"
     inkscape:cx="216.23546"
     inkscape:cy="171.74526"
     inkscape:window-width="1920"
     inkscape:window-height="1129"
     inkscape:window-x="0"
     inkscape:window-y="32"
     inkscape:window-maximized="1"
     inkscape:current-layer="svg9" />
  <!-- Uploaded to: SVG Repo, www.svgrepo.com, Generator: SVG Repo Mixer Tools -->
  <title
     id="title2">ic_fluent_delete_48_filled</title>
  <desc
     id="desc4">Created with Sketch.</desc>
  <g
     id="🔍-Product-Icons"
     stroke="none"
     stroke-width="1"
     fill="none"
     fill-rule="evenodd"
     transform="matrix(0.06508475,0,0,0.06508475,-0.6020339,-0.439322)">
    <g
       id="ic_fluent_delete_48_filled"
       fill="#bababa"
       fill-rule="nonzero">
      <path
         d="m 24,6.75 c 3.375073,0 6.125312,2.6752368 6.245878,6.020873 L 30.25,13.001001 37,13 c 0.966498,0 1.75,0.783502 1.75,1.75 0,0.918173 -0.70711,1.671192 -1.606473,1.744199 L 37,16.5 H 35.833 L 34.205831,38.069845 C 34.038523,40.286678 32.191021,42 29.967883,42 H 18.032117 c -2.223138,0 -4.07064,-1.713322 -4.237948,-3.930155 L 12.166,16.5 H 11 c -0.918173,0 -1.6711923,-0.70711 -1.7441988,-1.606473 L 9.25,14.75 c 0,-0.918173 0.7071103,-1.671192 1.606473,-1.744199 L 11,13 h 6.75 c 0,-3.2983673 2.555017,-5.9999783 5.793824,-6.2336062 l 0.227049,-0.012272 z m 3.75,13 c -0.647209,0 -1.179534,0.491875 -1.243546,1.122195 L 26.5,21 v 12 l 0.0065,0.127805 C 26.57047,33.758125 27.102791,34.25 27.75,34.25 c 0.647209,0 1.179534,-0.491875 1.243546,-1.122195 L 29,33 V 21 L 28.9935,20.872195 C 28.929534,20.241875 28.397209,19.75 27.75,19.75 Z m -7.5,0 c -0.647209,0 -1.179534,0.491875 -1.243546,1.122195 L 19,21 v 12 l 0.0065,0.127805 C 19.07047,33.758125 19.602791,34.25 20.25,34.25 c 0.647209,0 1.179534,-0.491875 1.243546,-1.122195 L 21.5,33 V 21 L 21.4935,20.872195 C 21.429534,20.241875 20.897209,19.75 20.25,19.75 Z M 24.167522,10.255019 24,10.25 c -1.462532,0 -2.658404,1.141705 -2.744981,2.582478 L 21.25,13.001004 26.75,13 c 0,-1.462532 -1.141705,-2.658404 -2.582478,-2.744981 z"
         id="🎨-Color" />
    </g>
  </g>
</svg>
